X:1
T:King's Lynn
T:King's Lynn
T:Public domain
T:Public domain
Z:Public domain
%%score { ( 1 2 ) ( 3 4 ) }
L:1/8
Q:1/4=115
M:1/4
K:F
V:1 treble nm="P1"
V:2 treble 
V:3 bass nm="P2"
V:4 bass 
V:1
"^Editor: John Henry Fowler""^( Revision: 11-21-2007 )" A2 |[M:4/4] G2 [FA]2 D2 E2 | %2
 (F2 G2) G2 (BA) | G3"^( 1906 )" F D2 C2 | D6 (DE) | %5
 F2"^Ralph Vaughan Williams" G2 A2"^( 1872 - 1958 )" (cA) | d4 d2 c2 | [CA]2 [CFc]2 [DA]2 [EG]2 | %8
 A6 (DE) | F2 G2 A2 (cA) | d4 c2 A2 | [Fc]2 [FAc]2 [FA]2 [EG]2 | A6 A2 | G2 A2 D2 E2 | %14
 ([CF]2 [DG]2) [Gc]2 (BA) | G3 F D2 C2 |[M:3/4] [A,D]6 |] %17
V:2
 D2 |[M:4/4] D2 D2 D4 | C2 D2 C2 [CF]2 | D3 C B,2 A,2 | A,6 D2 | D2 E2 F2 E2 | F2 G2 F2 C2 | x8 | %8
 F6 D2 | D2 E2 F2 F2 | F4 F2 E2 | x8 | E6 F2 | E4 A,2 C2 | z4 C2 [CF]2 | D3 C B,2 A,2 | %16
[M:3/4] x6 |] %17
V:3
 F,2 |[M:4/4] B,2 A,2 B,2 G,2 | C2 B,2 C2 F,2 | B,3 A, F,4 | D,6 (F,G,) | A,2 C2 C4 | %6
 A,2 B,2 A,2 G,2 | F,2 F,4 C2 | C6 F,G, | A,2 C2 C2 C2 | B,4 A,2 C2 | A,2 C2 C2 C2 | C6 B,2 | %13
 =B,2 C2 F,2 G,2 | C2 B,2 C2 F,2 | B,3 A, A,4 |[M:3/4] [D,F,]6 |] %17
V:4
 D,2 |[M:4/4] G,,2 D,2 B,,4 | (A,,2 G,,F,,) E,,2 E,,2 | G,,3 A,, B,,2 F,2 | D,,6 D,2 | %5
 D,2 C,2 (F,G,) A,2 | D,4 D,2 E,2 | F,2 (A,,2 B,,2) C,2 | F,,6 D,2 | D,2 C,2 F,2 A,,2 | %10
 (B,,2 D,2) F,2 A,2 | F,2 (F,,G,,) A,,2 C,2 | (A,,3 =B,, C,2) D,2 | E,2 A,,2 D,2 C,2 | %14
 (A,,2 G,,F,,) E,,2 F,,2 | G,,3 A,, B,,2 F,,2 |[M:3/4] D,,6 |] %17

